; HEADER_BLOCK_START
; generated by Creality_Print V6.3.0.3420 on 2026-03-09 at 09:32:33
; total layer number: 369
; filament_density: 1.23
; filament_diameter: 1.75
; max_z_height: 59.08
; creality_uuid: cc8b2c4d-beda-49d7-8580-75b5cee7506d
; HEADER_BLOCK_END

; MINX = 95.07
; MINY = 65.58
; MINZ = 0.00
; MAXX = 124.93
; MAXY = 116.47
; MAXZ = 59.00

; multicolor_method = 0 
; THUMBNAIL_BLOCK_START

;
; THUMBNAIL_BLOCK_END

; THUMBNAIL_BLOCK_START

;
; THUMBNAIL_BLOCK_END

; external perimeters extrusion width = 0.42mm
; perimeters extrusion width = 0.45mm
; infill extrusion width = 0.45mm
; solid infill extrusion width = 0.42mm
; top infill extrusion width = 0.42mm
; support material extrusion width = 0.40mm
; first layer extrusion width = 0.50mm

; external perimeters extrusion width = 0.42mm
; perimeters extrusion width = 0.45mm
; infill extrusion width = 0.45mm
; solid infill extrusion width = 0.42mm
; top infill extrusion width = 0.42mm
; support material extrusion width = 0.40mm
; first layer extrusion width = 0.50mm

; EXECUTABLE_BLOCK_START
EXCLUDE_OBJECT_DEFINE NAME=bouton_2.stl_id_0_copy_0 CENTER=110,110 POLYGON=[[95.075,103.525],[106.975,103.525],[124.925,104.575],[124.925,116.475],[113.025,116.475],[95.075,115.425],[95.075,103.525]]
EXCLUDE_OBJECT_DEFINE NAME=bouton_2.stl_id_1_copy_0 CENTER=110,72.05 POLYGON=[[95.075,65.575],[106.975,65.575],[124.925,66.625],[124.925,78.525],[113.025,78.525],[95.075,77.475],[95.075,65.575]]
M73 P0 R86
M106 S0
M106 P2 S0
; max_print_temp = 80,250
;TYPE:Custom
START_PRINT EXTRUDER_TEMP=250 BED_TEMP=80
T0
M204 S2000
M104 S250
G1 Z3 F600
M83
G92 E0
G1 Z1 F600
G90
G21
M83 ; use relative distances for extrusion
SET_PRESSURE_ADVANCE ADVANCE=0.072; Override pressure advance value
G1 E-.6 F1800
G1 Z.2 F30000
M106 S0
;LAYER_CHANGE
;Z:0.2
;HEIGHT:0.2
;BEFORE_LAYER_CHANGE
;0.2
G92 E0

;AFTER_LAYER_CHANGE
;0.2
;_SET_FAN_SPEED_CHANGING_LAYER
SET_VELOCITY_LIMIT ACCEL=1000 ACCEL_TO_DECEL=1000
SET_VELOCITY_LIMIT SQUARE_CORNER_VELOCITY=20
; printing object bouton 2.stl id:0 copy 0
EXCLUDE_OBJECT_START NAME=bouton_2.stl_id_0_copy_0
G1 X114.871 Y102.308 Z.6 F30000
G1 Z.2
G1 E.6 F1800
;TYPE:Support
;WIDTH:0.5
G1 F3600
G2 X116.408 Y102.357 I.817 J-1.491 E.05759
G3 X118.891 Y102.835 I.643 J3.358 E.09354
G3 X121.877 Y103.127 I1.258 J2.541 E.11414
G3 X126.406 Y107.009 I1.894 J2.373 E.30309
G3 X126.372 Y109.62 I-2.23 J1.277 E.0989
G3 X126.421 Y113.261 I-2.601 J1.855 E.13986
G3 X122.697 Y117.94 I-2.334 J1.964 E.30216
G3 X118.552 Y118.305 I-2.253 J-1.872 E.16706
G3 X115.306 Y118.194 I-1.534 J-2.653 E.12359
G3 X110.877 Y115.769 I-1.428 J-2.649 E.21635
G3 X111.685 Y111.173 I2.331 J-1.959 E.19194
G3 X111.107 Y109.205 I2.491 J-1.8 E.07552
G3 X111.155 Y104.836 I2.202 J-2.161 E.17528
G3 X114.805 Y102.292 I3.014 J.435 E.18009
G1 X118.222 Y108.218 F30000
G1 F3600
G1 X118.401 Y108.121 E.00735
G2 X119.905 Y108.639 I1.75 J-2.636 E.05807
G3 X120.899 Y109.64 I-.618 J1.608 E.05248
G1 X121.186 Y110.053 E.01815
G2 X121.236 Y112.998 I3.327 J1.417 E.10953
G2 X119.013 Y113.218 I-.82 J3.066 E.08242
G2 X117.625 Y112.562 I-2.071 J2.588 E.05591
G2 X117.186 Y110.223 I-3.22 J-.607 E.08795
G2 X117.166 Y108.456 I-3.348 J-.845 E.06451
G1 X118.155 Y108.233 E.03661
G1 E-.42 F1800
;WIPE_START
G1 F3600
G1 X117.18 Y108.453 E-.171
;WIPE_END
G1 E-.009 F1800
G1 X122.723 Y113.7 Z.6 F30000
G1 X126.252 Y117.04 Z.6
G1 Z.2
G1 E.6 F1800
G1 F3600
G1 X126.252 Y113.674 E.12155
G1 X125.924 Y113.344 E.0168
G1 X126.252 Y112.667 E.02717
G1 X126.252 Y110.221 E.08829
G2 X125.879 Y109.69 I-1.051 J.341 E.02378
G2 X125.951 Y107.006 I-2.48 J-1.41 E.10097
G1 X126.252 Y106.385 E.02491
G1 X126.252 Y104.61 E.06407
G2 X125.744 Y103.769 I-1.617 J.402 E.03602
G1 X125.744 Y117.25 E.48678
G3 X125.236 Y117.573 I-.815 J-.723 E.022
G1 X125.236 Y103.316 E.51477
G2 X124.728 Y103.026 I-.714 J.663 E.02143
G1 X124.728 Y117.771 E.53238
G3 X124.22 Y117.879 I-.457 J-.901 E.01896
G1 X124.22 Y102.909 E.54052
G2 X123.712 Y102.872 I-.313 J.787 E.01867
G1 X123.712 Y117.863 E.54127
G3 X123.205 Y117.74 I.361 J-2.592 E.0189
G1 X123.205 Y102.908 E.5355
G2 X122.697 Y103.101 I.058 J.917 E.01991
G1 X122.697 Y117.477 E.51905
G1 X122.189 Y117.886 E.02354
G1 X122.189 Y103.405 E.52285
G1 X121.913 Y103.624 E.01271
G1 X121.681 Y103.489 E.0097
G1 X121.681 Y118.23 E.53225
G3 X121.173 Y118.443 I-.598 J-.714 E.02019
G1 X121.173 Y113.406 E.18188
G1 X120.665 Y113.285 E.01885
G1 X120.665 Y118.562 E.19053
G3 X120.157 Y118.533 I-.208 J-.834 E.01865
G1 X120.157 Y113.313 E.18848
G2 X119.649 Y113.412 I-.093 J.872 E.01897
G1 X119.649 Y118.433 E.18128
G1 X119.142 Y118.236 E.01968
G1 X119.142 Y113.609 E.16706
G1 X118.923 Y113.693 E.00846
G1 X118.634 Y113.429 E.01416
G1 X118.634 Y117.845 E.15945
G1 X118.126 Y118.083 E.02026
G1 X118.126 Y113.153 E.17801
G2 X117.618 Y112.981 I-.6 J.934 E.01956
G1 X117.618 Y118.238 E.18983
G3 X117.11 Y118.318 I-.379 J-.758 E.01886
G1 X117.11 Y111.019 E.26352
G1 X116.728 Y110.217 E.03208
G2 X116.666 Y108.147 I-2.778 J-.953 E.07642
G1 X117.11 Y108.047 E.01644
G1 X117.11 Y102.712 E.19261
G1 X116.602 Y102.754 E.0184
G1 X116.602 Y118.284 E.5607
G3 X116.094 Y118.135 I-.021 J-.871 E.01941
G1 X116.094 Y102.888 E.55052
G1 X115.587 Y103.04 E.01914
G1 X115.587 Y117.892 E.53626
G1 X115.345 Y117.695 E.01125
G1 X115.079 Y117.851 E.01115
G1 X115.079 Y102.777 E.54426
G3 X114.571 Y102.659 I6.144 J-27.612 E.01883
G1 X114.571 Y118.035 E.55514
G3 X114.063 Y118.135 I-.416 J-.77 E.01898
G1 X114.063 Y102.646 E.55927
G2 X113.555 Y102.701 I-.165 J.848 E.01873
G1 X113.555 Y118.099 E.55596
G3 X113.047 Y117.973 I-.05 J-.883 E.01918
G1 X113.047 Y102.899 E.54425
G2 X112.539 Y103.233 I.286 J.988 E.02229
G1 X112.539 Y117.754 E.52429
G1 X112.031 Y117.35 E.02343
G1 X112.031 Y103.787 E.48974
G2 X111.524 Y105.036 I1.765 J1.445 E.04944
G1 X111.524 Y109.789 E.17162
G3 X111.523 Y109.009 I1.236 J-.392 E.0286
G3 X111.016 Y108.405 I.726 J-1.124 E.0289
G1 X111.016 Y105.308 E.11185
G1 E-.42 F1800
;WIPE_START
G1 F3600
G1 X111.016 Y106.308 E-.171
;WIPE_END
G1 E-.009 F1800
G1 X118.261 Y108.709 Z.6 F30000
G1 X121.173 Y109.674 Z.6
G1 Z.2
G1 E.6 F1800
G1 F3600
G1 X121.173 Y103.194 E.23398
G2 X120.665 Y103.048 I-.491 J.755 E.01936
G1 X120.665 Y108.688 E.20363
G3 X120.157 Y108.314 I.352 J-1.01 E.02312
G1 X120.157 Y102.982 E.19253
G1 X119.649 Y103.017 E.01838
G1 X119.649 Y108.208 E.18745
G3 X119.142 Y108.046 I.009 J-.901 E.01955
G1 X119.142 Y103.179 E.17571
G3 X118.634 Y103.163 I-.247 J-.223 E.02088
G1 X118.634 Y107.78 E.16673
G1 X118.443 Y107.629 E.00878
G1 X118.126 Y107.802 E.01306
G1 X118.126 Y102.885 E.17754
G2 X117.618 Y102.762 I-.451 J.756 E.01915
G1 X117.618 Y108.143 E.19429
G1 X111.524 Y117.013 F30000
G1 F3600
G1 X111.524 Y111.828 E.18721
G2 X111.016 Y112.41 I.69 J1.114 E.02832
G1 X111.016 Y115.607 E.11543
G1 X110.398 Y115.916 F30000
;TYPE:Brim
G1 F3600
G1 X110.408 Y116.052 E.00494
G1 X110.73 Y117.064 E.03833
G1 X111.29 Y117.885 E.03589
G1 X112.115 Y118.554 E.03833
G1 X113.1 Y118.948 E.03832
G1 X114.157 Y119.034 E.03831
G1 X115.301 Y118.778 E.04231
G1 X116.28 Y119.154 E.03784
G1 X117.296 Y119.223 E.03677
G1 X118.146 Y119.025 E.03154
G1 X117.96 Y119.593 E.02158
G1 X117.531 Y120.575 E.03868
G1 X117.274 Y121.066 E.02001
G1 X116.666 Y122.063 E.04218
G1 X116.026 Y122.918 E.03858
G1 X115.309 Y123.711 E.03859
G1 X114.523 Y124.436 E.03859
G1 X113.674 Y125.085 E.03859
G1 X112.769 Y125.653 E.03859
G1 X111.815 Y126.136 E.03859
G1 X110.822 Y126.53 E.03859
G1 X109.796 Y126.832 E.03859
G1 X108.747 Y127.038 E.03859
G1 X107.682 Y127.147 E.03867
G1 X107.04 Y127.165 E.02319
G1 X95.095 Y127.18 E.43128
G1 X94.022 Y127.133 E.03878
G1 X92.963 Y126.987 E.03859
G1 X91.922 Y126.746 E.03859
G1 X90.907 Y126.41 E.03859
G1 X89.925 Y125.981 E.03868
G1 X89.434 Y125.724 E.02001
G1 X88.437 Y125.116 E.04218
G1 X87.582 Y124.476 E.03858
G1 X86.789 Y123.759 E.03859
G1 X86.064 Y122.973 E.03859
G1 X85.415 Y122.124 E.03859
G1 X84.847 Y121.219 E.03859
G1 X84.364 Y120.265 E.03859
G1 X83.97 Y119.272 E.03859
G1 X83.668 Y118.246 E.03859
G1 X83.462 Y117.197 E.03859
G1 X83.353 Y116.132 E.03867
G1 X83.335 Y115.52 E.02211
G1 X83.32 Y111.525 E.14424
G1 X83.365 Y110.452 E.03878
G1 X83.496 Y109.479 E.03543
G1 X83.353 Y108.182 E.04712
G1 X83.335 Y107.57 E.02211
G1 X83.32 Y103.575 E.14424
G1 X83.365 Y102.502 E.03878
G1 X83.507 Y101.442 E.03859
G1 X83.746 Y100.4 E.03859
G1 X84.08 Y99.385 E.03859
G1 X84.506 Y98.402 E.03868
G1 X84.776 Y97.884 E.02109
G1 X85.384 Y96.887 E.04217
G1 X86.024 Y96.032 E.03858
G1 X86.741 Y95.239 E.03859
G1 X87.527 Y94.514 E.03859
G1 X88.376 Y93.865 E.03859
G1 X89.281 Y93.297 E.03859
G1 X90.235 Y92.814 E.03859
G1 X91.228 Y92.42 E.03859
G1 X92.254 Y92.118 E.03859
G1 X93.303 Y91.912 E.03859
G1 X94.368 Y91.803 E.03867
G1 X95.01 Y91.785 E.02319
G1 X106.955 Y91.77 E.43128
G1 X108.028 Y91.817 E.03878
G1 X109.087 Y91.963 E.03859
G1 X110.128 Y92.204 E.03859
G1 X111.143 Y92.54 E.03859
G1 X112.124 Y92.969 E.03867
G1 X112.7 Y93.272 E.02349
G1 X113.613 Y93.833 E.0387
G1 X114.468 Y94.474 E.03859
G1 X115.261 Y95.191 E.03859
G1 X115.986 Y95.977 E.03859
G1 X116.635 Y96.826 E.03859
G1 X117.203 Y97.731 E.03859
G1 X117.686 Y98.685 E.03859
G1 X118.08 Y99.678 E.03859
G1 X118.382 Y100.704 E.03859
G1 X118.588 Y101.753 E.03859
G1 X118.628 Y102.145 E.01424
G1 X118.342 Y102.001 E.01154
G1 X117.317 Y101.802 E.03771
G1 X116.34 Y101.883 E.03538
G1 X115.704 Y102.078 E.02401
G1 X115.473 Y101.955 E.00946
G1 X114.447 Y101.726 E.03797
G1 X113.451 Y101.797 E.03605
G1 X112.459 Y102.173 E.03832
G1 X111.622 Y102.826 E.03832
G1 X111.015 Y103.697 E.03832
G1 X110.741 Y104.554 E.03247
G1 X110.635 Y104.651 E.00518
G1 X110.048 Y105.53 E.03818
G1 X109.746 Y106.544 E.03818
G1 X109.756 Y107.601 E.03818
G1 X110.048 Y108.548 E.03575
G1 X110.625 Y109.412 E.03752
G1 X110.627 Y109.893 E.01739
G1 X110.914 Y110.868 E.03667
G1 X111.041 Y111.075 E.00878
G1 X110.601 Y111.438 E.02059
G1 X110.044 Y112.256 E.03575
G1 X109.712 Y113.331 E.04061
G1 X109.722 Y114.389 E.03818
G1 X110.014 Y115.335 E.03575
G1 X110.376 Y115.882 E.02369
G1 X109.951 Y116.078 F30000
G1 F3600
G1 X110.292 Y117.194 E.04211
G1 X110.358 Y117.33 E.00546
G1 X110.907 Y118.134 E.03517
G1 X111.01 Y118.246 E.00549
G1 X111.819 Y118.902 E.03759
G1 X111.954 Y118.982 E.00567
G1 X112.92 Y119.369 E.03758
G1 X113.073 Y119.405 E.00567
G1 X114.11 Y119.489 E.03757
G1 X114.267 Y119.478 E.00569
G1 X115.226 Y119.264 E.03546
G1 X115.305 Y119.269 E.00286
G1 X116.106 Y119.577 E.031
G1 X116.259 Y119.61 E.00564
G1 X117.225 Y119.676 E.03495
G1 X117.325 Y119.731 E.00413
G1 X117.341 Y119.868 E.00498
G1 X117.116 Y120.381 E.02025
G1 X116.874 Y120.845 E.01888
G1 X116.291 Y121.801 E.04044
G1 X115.668 Y122.632 E.03749
G1 X114.98 Y123.394 E.03708
G1 X114.224 Y124.089 E.03708
G1 X113.418 Y124.705 E.03662
G1 X112.538 Y125.258 E.03753
G1 X111.622 Y125.722 E.03708
G1 X110.667 Y126.099 E.03708
G1 X109.681 Y126.388 E.03708
G1 X108.686 Y126.584 E.03662
G1 X107.657 Y126.69 E.03735
G1 X107.031 Y126.708 E.02261
G1 X95.108 Y126.723 E.43049
G1 X94.07 Y126.677 E.03753
G1 X93.04 Y126.536 E.03753
G1 X92.04 Y126.303 E.03708
G1 X91.065 Y125.98 E.03708
G1 X90.119 Y125.566 E.03729
G1 X89.655 Y125.324 E.01888
G1 X88.699 Y124.741 E.04044
G1 X87.868 Y124.118 E.03749
G1 X87.106 Y123.43 E.03708
G1 X86.411 Y122.674 E.03708
G1 X85.795 Y121.868 E.03662
G1 X85.242 Y120.988 E.03753
G1 X84.778 Y120.072 E.03708
G1 X84.401 Y119.117 E.03708
G1 X84.112 Y118.131 E.03708
G1 X83.916 Y117.136 E.03662
G1 X83.81 Y116.106 E.03737
G1 X83.792 Y115.51 E.02154
G1 X83.777 Y111.53 E.14369
G1 X83.82 Y110.498 E.0373
G1 X83.948 Y109.548 E.03459
G1 X83.949 Y109.421 E.0046
G1 X83.81 Y108.155 E.04597
G1 X83.792 Y107.564 E.02137
G1 X83.777 Y103.587 E.1436
G1 X83.82 Y102.548 E.03753
G1 X83.959 Y101.518 E.03753
G1 X84.189 Y100.517 E.03708
G1 X84.51 Y99.542 E.03708
G1 X84.921 Y98.594 E.03728
G1 X85.176 Y98.105 E.01993
G1 X85.759 Y97.149 E.04042
G1 X86.374 Y96.328 E.03704
G1 X87.062 Y95.565 E.03708
G1 X87.826 Y94.861 E.03753
G1 X88.642 Y94.238 E.03708
G1 X89.512 Y93.692 E.03708
G1 X90.428 Y93.228 E.03708
G1 X91.371 Y92.855 E.03662
G1 X92.356 Y92.565 E.03708
G1 X93.376 Y92.364 E.03753
G1 X94.393 Y92.26 E.0369
G1 X95.015 Y92.242 E.02247
G1 X106.948 Y92.227 E.43085
G1 X107.993 Y92.274 E.03776
G1 X109.01 Y92.414 E.03708
G1 X110.01 Y92.647 E.03708
G1 X110.985 Y92.97 E.03708
G1 X111.921 Y93.379 E.0369
G1 X112.477 Y93.672 E.02268
G1 X113.361 Y94.215 E.03746
G1 X114.172 Y94.824 E.03662
G1 X114.935 Y95.512 E.03708
G1 X115.631 Y96.266 E.03708
G1 X116.255 Y97.082 E.03708
G1 X116.808 Y97.962 E.03753
G1 X117.272 Y98.878 E.03708
G1 X117.645 Y99.821 E.03662
G1 X117.938 Y100.819 E.03753
G1 X118.029 Y101.282 E.01707
G1 X118.003 Y101.394 E.00413
G1 X117.869 Y101.444 E.00515
G1 X117.413 Y101.355 E.01677
G1 X117.27 Y101.348 E.00516
G1 X116.316 Y101.426 E.03457
G1 X115.803 Y101.569 E.01922
G1 X115.717 Y101.565 E.00311
G1 X115.563 Y101.506 E.00597
G1 X114.556 Y101.282 E.03724
G1 X114.404 Y101.271 E.00549
G1 X113.428 Y101.341 E.03533
G1 X113.28 Y101.373 E.00549
G1 X112.306 Y101.742 E.03759
G1 X112.169 Y101.819 E.00567
G1 X111.349 Y102.459 E.03758
G1 X111.241 Y102.573 E.00567
G1 X110.646 Y103.428 E.03758
G1 X110.577 Y103.568 E.00564
G1 X110.352 Y104.269 E.02658
G1 X109.674 Y105.268 E.04362
G1 X109.607 Y105.41 E.00565
G1 X109.311 Y106.404 E.03744
G1 X109.289 Y106.559 E.00565
G1 X109.299 Y107.596 E.03745
G1 X109.322 Y107.746 E.00547
G1 X109.608 Y108.673 E.03503
G1 X109.673 Y108.81 E.00547
G1 X110.145 Y109.517 E.0307
G1 X110.168 Y109.593 E.00286
G1 X110.169 Y109.885 E.01057
G1 X110.191 Y110.032 E.00536
G1 X110.438 Y110.872 E.03161
G1 X110.403 Y111.009 E.0051
G1 X110.216 Y111.192 E.00945
G1 X109.672 Y111.99 E.03489
G1 X109.604 Y112.131 E.00565
G1 X109.278 Y113.186 E.03986
G1 X109.255 Y113.346 E.00583
G1 X109.265 Y114.383 E.03744
G1 X109.288 Y114.533 E.00547
G1 X109.574 Y115.46 E.03504
G1 X109.638 Y115.595 E.00538
G1 X109.929 Y116.045 E.01935
G1 X109.538 Y116.291 F30000
G1 F3600
G1 X109.852 Y117.319 E.0388
G1 X109.944 Y117.523 E.00808
G1 X110.525 Y118.385 E.03754
G1 X110.669 Y118.55 E.00788
G1 X111.523 Y119.251 E.0399
G1 X111.794 Y119.41 E.01133
G1 X112.741 Y119.789 E.03683
G1 X113.046 Y119.861 E.01133
G1 X114.15 Y119.944 E.03997
G1 X114.376 Y119.922 E.00818
G1 X115.191 Y119.74 E.03017
G1 X115.269 Y119.745 E.00282
G1 X116.016 Y120.024 E.02879
G1 X116.236 Y120.067 E.00811
G1 X116.537 Y120.087 E.0109
G1 X116.638 Y120.142 E.00413
G1 X116.65 Y120.288 E.00528
G1 X116.474 Y120.623 E.01368
G1 X115.915 Y121.539 E.03871
G1 X115.311 Y122.346 E.03641
G1 X114.65 Y123.076 E.03555
G1 X113.934 Y123.734 E.03511
G1 X113.162 Y124.325 E.03511
G1 X112.318 Y124.856 E.03601
G1 X111.428 Y125.307 E.03601
G1 X110.512 Y125.669 E.03556
G1 X109.579 Y125.942 E.03511
G1 X108.625 Y126.13 E.03512
G1 X107.632 Y126.233 E.03603
G1 X107.022 Y126.251 E.02202
G1 X95.121 Y126.266 E.4297
G1 X94.117 Y126.222 E.03628
G1 X93.129 Y126.087 E.03601
G1 X92.17 Y125.864 E.03556
G1 X91.223 Y125.55 E.03602
G1 X90.312 Y125.152 E.03591
G1 X89.877 Y124.924 E.01774
G1 X88.961 Y124.365 E.03871
G1 X88.154 Y123.761 E.03641
G1 X87.424 Y123.1 E.03555
G1 X86.766 Y122.384 E.03511
G1 X86.175 Y121.612 E.03511
G1 X85.644 Y120.768 E.03601
G1 X85.193 Y119.878 E.03601
G1 X84.831 Y118.962 E.03556
G1 X84.558 Y118.029 E.03511
G1 X84.37 Y117.075 E.03512
G1 X84.267 Y116.081 E.03607
G1 X84.249 Y115.5 E.02097
G1 X84.234 Y111.536 E.14314
G1 X84.276 Y110.544 E.03583
G1 X84.4 Y109.616 E.03382
G1 X84.406 Y109.433 E.0066
G1 X84.267 Y108.128 E.04738
G1 X84.249 Y107.558 E.02061
G1 X84.234 Y103.598 E.14295
G1 X84.276 Y102.594 E.03628
G1 X84.408 Y101.606 E.03601
G1 X84.628 Y100.646 E.03556
G1 X84.94 Y99.699 E.03602
G1 X85.336 Y98.787 E.03589
G1 X85.577 Y98.326 E.01878
G1 X86.135 Y97.411 E.03869
G1 X86.723 Y96.623 E.0355
G1 X87.391 Y95.883 E.03601
G1 X88.125 Y95.208 E.036
G1 X88.908 Y94.611 E.03556
G1 X89.743 Y94.088 E.03556
G1 X90.622 Y93.643 E.03556
G1 X91.526 Y93.285 E.03512
G1 X92.459 Y93.011 E.03511
G1 X93.45 Y92.816 E.03646
G1 X94.418 Y92.717 E.03513
G1 X95.02 Y92.699 E.02175
G1 X106.941 Y92.684 E.43042
G1 X107.957 Y92.73 E.03673
G1 X108.933 Y92.865 E.03556
G1 X109.892 Y93.089 E.03556
